X:92
T:T059- The Wawking of the Faulds
S:Thompson's 'Orpheus Caledonius', II, 1733
Q:1/4=120
L:1/8
M:C|
K:G dorian
F2|C D F F F2 f d|c A G F D2 CD|F G A G F D C D|\
F G A G F D C F|D G G G G2 A c|A G A cd2 fg|\
a g f d c d f A|G F D F G2||f|\
d g g gg2 f g|a a g f d2 cd|f3/2 g/ f3/2 A/ F3/2 G/ A3/2 F/|\
f3/2 g/ f3/2 A/ F3/2 G/ A3/2 F/|G g g a g2 g f|\
d c d f g2 fg|a g f d c d f A|G F D F G2|]

